usr/share/icons/biglinux-icons-material/symbolic/status/audio-input-microphone-low-symbolic.svg

<svg width="16" height="16" version="1.1" xmlns="http://www.w3.org/2000/svg">
 <g fill="#dedede" stroke-linecap="round" stroke-linejoin="round" stroke-width="2" style="paint-order:stroke fill markers" aria-label="">
  <path d="m5.5 12q-0.3125 0-0.58594-0.11719t-0.47656-0.32031-0.32031-0.47656-0.11719-0.58594v-9q0-0.3125 0.11719-0.58594t0.32031-0.47656 0.47656-0.32031 0.58594-0.11719h4q0.3125 0 0.58594 0.11719t0.47656 0.32031 0.32031 0.47656 0.11719 0.58594v9q0 0.3125-0.11719 0.58594t-0.32031 0.47656-0.47656 0.32031-0.58594 0.11719zm-0.5-1.5q0 0.20312 0.14844 0.35156t0.35156 0.14844h4q0.20312 0 0.35156-0.14844t0.14844-0.35156v-9q0-0.20312-0.14844-0.35156t-0.35156-0.14844h-4q-0.20312 0-0.35156 0.14844t-0.14844 0.35156zm8-2.5v2.8281q0 0.65625-0.25 1.2344t-0.67969 1.0078q-0.42969 0.42969-1.0078 0.67969t-1.2344 0.25h-1.8281v1h2v1h-5v-1h2v-1h-1.8281q-0.65625 0-1.2344-0.25t-1.0078-0.67969q-0.42969-0.42969-0.67969-1.0078t-0.25-1.2344v-2.8281h1q0 0.42969-0.03125 0.96875-0.023437 0.53906-0.00781 1.1016 0.015625 0.55469 0.10156 1.0859 0.09375 0.52344 0.33594 0.9375 0.24218 0.40625 0.66406 0.65625 0.42969 0.25 1.1094 0.25h4.6562q0.67969 0 1.1016-0.25 0.42969-0.25 0.67188-0.65625 0.24219-0.41406 0.32812-0.9375 0.09375-0.53125 0.10938-1.0859 0.01563-0.5625-0.01563-1.0938-0.02343-0.53906-0.02343-0.97656z" stroke-width="2"/>
 </g>
</svg>

<svg xmlns="http://www.w3.org/2000/svg" width="16" height="16"><path fill="#dedede" stroke-linecap="round" stroke-linejoin="round" stroke-width="2" d="M5.5 12q-.313 0-.586-.117t-.476-.32-.32-.477T4 10.5v-9q0-.313.117-.586t.32-.477.477-.32T5.5 0h4q.313 0 .586.117t.477.32.32.477T11 1.5v9q0 .313-.117.586t-.32.477-.477.32T9.5 12zM5 10.5q0 .203.148.352T5.5 11h4q.203 0 .352-.148T10 10.5v-9q0-.203-.148-.352T9.5 1h-4q-.203 0-.352.148T5 1.5zM13 8v2.828q0 .656-.25 1.234t-.68 1.008q-.43.43-1.007.68T9.828 14H8v1h2v1H5v-1h2v-1H5.172q-.656 0-1.234-.25t-1.008-.68q-.43-.43-.68-1.008T2 10.829V8h1q0 .43-.031.969-.024.539-.008 1.101.016.555.102 1.086.093.524.335.938.243.406.665.656.43.25 1.109.25h4.656q.68 0 1.102-.25.43-.25.672-.656.242-.414.328-.938.093-.531.11-1.086.015-.562-.017-1.093Q12 8.437 12 8z" aria-label="" style="paint-order:stroke fill markers"/></svg>
